X:1
T: The New Rigadoon
N:27 October 1999
C:
S:
A:
O:
R:
M:4/4
K:C
I:speed 200
%W: A
% voice 1 (1 lines, 26 notes)
K:C
M:4/4
L:1/16
c8 B4 A4 |G12 G4 |A4 A4 B6 A B |c6 d2 c4 G4 |c8 B4 A4 |G12 G4 |A4 A4 B4 A2 B2 |c8c8 |
%W:
% voice 1 (1 lines, 26 notes)
c8 B4 A4 |G12 G4 |A4 A4 B6 A B |c6 d2 c4 G4 |c8 B4 A4 |G12 G4 |A4 A4 B4 A2 B2 |c8c8 |
%W: B
% voice 1 (1 lines, 29 notes)
e2 f2 g4 e2 f2 g4 |f4 e4 d4 G4 |c8 d4 e4 |e8 d8 |e2 f2 g4 e2 f2 g4 |f4 e4 d4 G4 |A8 B8 |c8c8 |
%W:
% voice 1 (1 lines, 29 notes)
e2 f2 g4 e2 f2 g4 |f4 e4 d4 G4 |c8 d4 e4 |e8 d8 |e2 f2 g4 e2 f2 g4 |f4 e4 d4 G4 |A8 B8 |c8c8 |
